symbols/web/auto_read_play/materialsymbolsrounded/auto_read_play_wght100gradN25fill1_24px.svg

<svg xmlns="http://www.w3.org/2000/svg" height="24" width="24"><path d="m11.175 11.975 2.075-1.4q.325-.2.325-.575 0-.375-.325-.6L11.175 8q-.375-.225-.75-.025t-.375.625v2.775q0 .45.375.65t.75-.05ZM4.65 18.1q-.35.325-.788.15-.437-.175-.437-.65V4.85q0-.6.413-1.025Q4.25 3.4 4.85 3.4h14.3q.6 0 1.013.425.412.425.412 1.025v10.3q0 .6-.412 1.013-.413.412-1.013.412h-13Z"/></svg>

<svg xmlns="http://www.w3.org/2000/svg" height="24" width="24"><path d="M11.175 11.975 13.25 10.575Q13.575 10.375 13.575 10Q13.575 9.625 13.25 9.4L11.175 8Q10.8 7.775 10.425 7.975Q10.05 8.175 10.05 8.6V11.375Q10.05 11.825 10.425 12.025Q10.8 12.225 11.175 11.975ZM4.65 18.1Q4.3 18.425 3.862 18.25Q3.425 18.075 3.425 17.6V4.85Q3.425 4.25 3.838 3.825Q4.25 3.4 4.85 3.4H19.15Q19.75 3.4 20.163 3.825Q20.575 4.25 20.575 4.85V15.15Q20.575 15.75 20.163 16.163Q19.75 16.575 19.15 16.575H6.15Z"/></svg>
